public/imgs/icons/download-picture.svg

<svg width="50" height="50" viewBox="0 0 50 50" fill="none" xmlns="http://www.w3.org/2000/svg">
<path d="M29.1218 5.35693C33.7458 5.35693 35.9395 5.78056 38.2179 6.99905C40.2751 8.09927 41.9003 9.72447 43.0005 11.7817C44.219 14.0601 44.6427 16.2538 44.6427 20.8777V29.1218C44.6427 33.7458 44.219 35.9395 43.0005 38.2179C41.9003 40.2751 40.2751 41.9003 38.2179 43.0005C35.9395 44.219 33.7458 44.6427 29.1218 44.6427H20.8777C16.2538 44.6427 14.0601 44.219 11.7817 43.0005C9.72447 41.9003 8.09927 40.2751 6.99905 38.2179C5.78056 35.9395 5.35693 33.7458 5.35693 29.1218V20.8777C5.35693 16.2538 5.78056 14.0601 6.99905 11.7817C8.09927 9.72447 9.72447 8.09927 11.7817 6.99905C14.0601 5.78056 16.2538 5.35693 20.8777 5.35693H29.1218ZM32.1054 27.5746L24.6017 36.8381C23.9748 37.612 22.836 37.7235 22.0709 37.0859L17.9665 33.6656L12.4341 39.199C12.7571 39.4386 13.1012 39.6561 13.466 39.8512C15.1562 40.7552 16.793 41.0712 20.8777 41.0712H29.1218C33.2066 41.0712 34.8434 40.7552 36.5336 39.8512C37.9684 39.0838 39.0838 37.9684 39.8512 36.5336C40.1135 36.0431 40.3264 35.5571 40.4963 35.0144L32.1054 27.5746ZM29.1218 8.92836H20.8777C16.793 8.92836 15.1562 9.24443 13.466 10.1484C12.0311 10.9157 10.9157 12.0311 10.1484 13.466C9.24443 15.1562 8.92836 16.793 8.92836 20.8777V29.1218C8.92836 33.1519 9.23602 34.7991 10.1124 36.4657L16.5942 29.9871C17.2473 29.334 18.2906 29.2867 19.0001 29.878L22.9662 33.1831L30.5054 23.8758C31.1457 23.0852 32.3163 22.9886 33.0776 23.6636L41.051 30.7322C41.0648 30.2407 41.0712 29.7063 41.0712 29.1218V20.8777C41.0712 16.793 40.7552 15.1562 39.8512 13.466C39.0838 12.0311 37.9684 10.9157 36.5336 10.1484C34.8434 9.24443 33.2066 8.92836 29.1218 8.92836ZM18.7498 16.0712C20.2291 16.0712 21.4284 17.2705 21.4284 18.7498C21.4284 20.2291 20.2291 21.4284 18.7498 21.4284C17.2705 21.4284 16.0712 20.2291 16.0712 18.7498C16.0712 17.2705 17.2705 16.0712 18.7498 16.0712Z" fill="white"/>
</svg>

<svg xmlns="http://www.w3.org/2000/svg" width="50" height="50" fill="none" xmlns:v="https://vecta.io/nano"><path d="M29.122 5.357c4.624 0 6.818.424 9.096 1.642a11.52 11.52 0 0 1 4.783 4.783c1.218 2.278 1.642 4.472 1.642 9.096v8.244c0 4.624-.424 6.818-1.642 9.096a11.52 11.52 0 0 1-4.783 4.783c-2.278 1.218-4.472 1.642-9.096 1.642h-8.244c-4.624 0-6.818-.424-9.096-1.642a11.52 11.52 0 0 1-4.783-4.783c-1.218-2.278-1.642-4.472-1.642-9.096v-8.244c0-4.624.424-6.818 1.642-9.096a11.52 11.52 0 0 1 4.783-4.783c2.278-1.218 4.472-1.642 9.096-1.642h8.244zm2.984 22.218l-7.504 9.263c-.627.774-1.766.885-2.531.248l-4.104-3.42-5.532 5.533c.323.24.667.457 1.032.652 1.69.904 3.327 1.22 7.412 1.22h8.244c4.085 0 5.722-.316 7.412-1.22a7.95 7.95 0 0 0 3.318-3.318 8.63 8.63 0 0 0 .645-1.519l-8.391-7.44zM29.122 8.928h-8.244c-4.085 0-5.722.316-7.412 1.22a7.95 7.95 0 0 0-3.318 3.318c-.904 1.69-1.22 3.327-1.22 7.412v8.244c0 4.03.308 5.677 1.184 7.344l6.482-6.479c.653-.653 1.696-.7 2.406-.109l3.966 3.305 7.539-9.307c.64-.791 1.811-.887 2.572-.212l7.973 7.069.02-1.61v-8.244c0-4.085-.316-5.722-1.22-7.412a7.95 7.95 0 0 0-3.318-3.318c-1.69-.904-3.327-1.22-7.412-1.22zM18.75 16.071a2.68 2.68 0 0 1 2.679 2.679 2.68 2.68 0 0 1-2.679 2.679 2.68 2.68 0 0 1-2.679-2.679 2.68 2.68 0 0 1 2.679-2.679z" fill="#fff"/></svg>
